X: 17048
T: Heather Breeze, The
R: reel
M: 4/4
K: Gmajor
|:"G drone"DGBG dGBG|"F# drone" DF (3FFF dFAF|"G drone" DGBG dGBG|1 "D drone" BdcA B/c/d AF:|2 "D drone"BdcA BGBd||
g2 a/g/f gbag|fd (3ddd fgaf|dg ~g2 gbag|fdcA BGBd|
g2 {a}gf gbag|fd (3ddd fgaf|gbag fagf|ed^cA B/c/d AF||

